packages/icons/src/alarm-clock.svg

<svg width="24" height="24" viewBox="0 0 24 24" fill="none" xmlns="http://www.w3.org/2000/svg">
<path d="M11.9996 22C10.7496 22 9.57878 21.7625 8.48711 21.2875C7.39544 20.8125 6.44544 20.1708 5.63711 19.3625C4.82878 18.5541 4.18711 17.6041 3.71211 16.5125C3.23711 15.4208 2.99961 14.25 2.99961 13C2.99961 11.75 3.23711 10.5791 3.71211 9.48748C4.18711 8.39581 4.82878 7.44581 5.63711 6.63748C6.44544 5.82914 7.39544 5.18748 8.48711 4.71248C9.57878 4.23748 10.7496 3.99998 11.9996 3.99998C13.2496 3.99998 14.4204 4.23748 15.5121 4.71248C16.6038 5.18748 17.5538 5.82914 18.3621 6.63748C19.1704 7.44581 19.8121 8.39581 20.2871 9.48748C20.7621 10.5791 20.9996 11.75 20.9996 13C20.9996 14.25 20.7621 15.4208 20.2871 16.5125C19.8121 17.6041 19.1704 18.5541 18.3621 19.3625C17.5538 20.1708 16.6038 20.8125 15.5121 21.2875C14.4204 21.7625 13.2496 22 11.9996 22ZM14.7996 17.2L16.1996 15.8L12.9996 12.6V7.99998H10.9996V13.4L14.7996 17.2ZM5.59961 2.34998L6.99961 3.74998L2.74961 7.99998L1.34961 6.59998L5.59961 2.34998ZM18.3996 2.34998L22.6496 6.59998L21.2496 7.99998L16.9996 3.74998L18.3996 2.34998ZM11.9996 20C13.9496 20 15.6038 19.3208 16.9621 17.9625C18.3204 16.6041 18.9996 14.95 18.9996 13C18.9996 11.05 18.3204 9.39581 16.9621 8.03748C15.6038 6.67914 13.9496 5.99998 11.9996 5.99998C10.0496 5.99998 8.39544 6.67914 7.03711 8.03748C5.67878 9.39581 4.99961 11.05 4.99961 13C4.99961 14.95 5.67878 16.6041 7.03711 17.9625C8.39544 19.3208 10.0496 20 11.9996 20Z" fill="black"/>
</svg>

<svg xmlns="http://www.w3.org/2000/svg" width="24" height="24" fill="none" viewBox="0 0 24 24">
  <path fill="#000" d="M12 22a8.727 8.727 0 0 1-3.513-.712 9.149 9.149 0 0 1-2.85-1.925 9.15 9.15 0 0 1-1.925-2.85A8.707 8.707 0 0 1 3 13c0-1.25.237-2.42.712-3.513a9.148 9.148 0 0 1 1.925-2.85 9.148 9.148 0 0 1 2.85-1.925A8.707 8.707 0 0 1 12 4c1.25 0 2.42.237 3.512.712a9.147 9.147 0 0 1 2.85 1.925 9.149 9.149 0 0 1 1.925 2.85A8.707 8.707 0 0 1 21 13c0 1.25-.238 2.42-.713 3.512a9.15 9.15 0 0 1-1.925 2.85 9.148 9.148 0 0 1-2.85 1.926A8.707 8.707 0 0 1 12 22Zm2.8-4.8 1.4-1.4-3.2-3.2V8h-2v5.4l3.8 3.8ZM5.6 2.35 7 3.75 2.75 8l-1.4-1.4L5.6 2.35Zm12.8 0 4.25 4.25-1.4 1.4L17 3.75l1.4-1.4ZM12 20c1.95 0 3.604-.68 4.962-2.038C18.32 16.604 19 14.95 19 13c0-1.95-.68-3.604-2.038-4.963C15.604 6.68 13.95 6 12 6c-1.95 0-3.605.68-4.963 2.037C5.68 9.396 5 11.05 5 13c0 1.95.679 3.604 2.037 4.962C8.395 19.322 10.05 20 12 20Z"/>
</svg>
